build/category/CarOutline.svg

<svg xmlns="http://www.w3.org/2000/svg" fill="none" viewBox="0 0 24 24" focusable="false"><path d="M0 0H24V24H0z"/><path fill="#74767B" fill-rule="evenodd" d="M16.4144 4C17.5373 4 18.5662 4.62704 19.0808 5.62502L21.1576 9.65223C21.6791 10.192 22 10.9269 22 11.7367L22 18.6093C22 19.7139 21.1046 20.6093 20 20.6093L19.0156 20.6093C17.9111 20.6093 17.0156 19.7139 17.0156 18.6093L17.0156 18L6.98437 18L6.98437 18.6093C6.98437 19.7139 6.08894 20.6093 4.98437 20.6093L4 20.6093C2.89543 20.6093 2 19.7139 2 18.6093L2 11.7367C2 10.9268 2.32089 10.192 2.84246 9.65222L4.91922 5.62501C5.43386 4.62704 6.46271 4 7.58557 4L16.4144 4ZM7.58557 5.3L16.4144 5.3C17.0507 5.3 17.6337 5.65532 17.9254 6.22084L19.2038 8.7L4.79618 8.7L6.07464 6.22084C6.36626 5.65532 6.94928 5.3 7.58557 5.3ZM18.3156 18L20.7 18L20.7 18.6093C20.7 18.9959 20.3866 19.3093 20 19.3093L19.0156 19.3093C18.629 19.3093 18.3156 18.9959 18.3156 18.6093L18.3156 18ZM3.3 18L5.68437 18L5.68437 18.6093C5.68437 18.9959 5.37097 19.3093 4.98437 19.3093L4 19.3093C3.6134 19.3093 3.3 18.9959 3.3 18.6093L3.3 18ZM5 10.0367L19 10.0367C19.8222 10.0367 20.5081 10.6204 20.6659 11.396L18.596 11.396C18.237 11.396 17.946 11.687 17.946 12.046C17.946 12.405 18.237 12.696 18.596 12.696L20.7 12.696L20.7 16.7L18.0754 16.7C18.068 16.6766 18.0597 16.6533 18.0504 16.63L16.7185 13.2855C16.264 12.1442 15.1598 11.3954 13.9314 11.3954L10.0686 11.3954C8.84025 11.3954 7.73597 12.1442 7.2815 13.2855L5.94959 16.63C5.94033 16.6533 5.932 16.6766 5.92458 16.7L3.3 16.7L3.3 12.696L5.40402 12.696C5.76301 12.696 6.05402 12.405 6.05402 12.046C6.05402 11.687 5.76301 11.396 5.40402 11.396L3.33415 11.396C3.49193 10.6204 4.1778 10.0367 5 10.0367ZM7.32102 16.7L16.679 16.7L15.5107 13.7664C15.2532 13.1197 14.6275 12.6954 13.9314 12.6954L10.0686 12.6954C9.37254 12.6954 8.74679 13.1197 8.48926 13.7664L7.32102 16.7Z"/></svg>

<svg xmlns="http://www.w3.org/2000/svg" fill="none" viewBox="0 0 24 24" focusable="false"><path fill="#74767B" fill-rule="evenodd" d="M16.41 4c1.12 0 2.15.62 2.67 1.62l2.07 4.03c.52.54.85 1.27.85 2.08v6.87a2 2 0 0 1-2 2h-.99a2 2 0 0 1-2-2v-.61H6.98v.61a2 2 0 0 1-2 2H4c-1.11 0-2-.89-2-2v-6.87c0-.81.32-1.54.84-2.08l2.07-4.03C5.43 4.62 6.46 4 7.58 4zM7.58 5.29h8.83c.64 0 1.22.36 1.51.93L19.2 8.7H4.79l1.28-2.48c.29-.57.87-.93 1.51-.93m10.73 12.7h2.39v.61c0 .39-.32.7-.7.7h-.99c-.39 0-.7-.31-.7-.7zm-15.02 0h2.39v.61c0 .39-.31.7-.7.7H4c-.39 0-.71-.31-.71-.7zM5 10.03h14c.82 0 1.5.59 1.66 1.36h-2.07c-.36 0-.65.29-.65.65s.29.65.65.65h2.11v4.01h-2.63c-.01-.03-.02-.05-.02-.08l-1.34-3.34a3 3 0 0 0-2.78-1.89h-3.87c-1.22 0-2.33.75-2.78 1.89l-1.34 3.34c0 .03-.01.05-.02.08H3.29v-4.01H5.4c.36 0 .65-.29.65-.65s-.29-.65-.65-.65H3.33c.16-.77.84-1.36 1.67-1.36m2.32 6.67h9.35l-1.16-2.94c-.26-.65-.89-1.07-1.58-1.07h-3.87c-.69 0-1.32.42-1.58 1.07z"/></svg>
